assets/icons/history.svg

<svg width="24" height="24" viewBox="0 0 24 24" fill="none" xmlns="http://www.w3.org/2000/svg">
<path d="M12 20C10.1333 20 8.48148 19.4333 7.04444 18.3C5.60741 17.1667 4.67407 15.7185 4.24444 13.9556C4.18519 13.7333 4.22963 13.5296 4.37778 13.3444C4.52593 13.1593 4.72593 13.0519 4.97778 13.0222C5.21481 12.9926 5.42963 13.037 5.62222 13.1556C5.81481 13.2741 5.94815 13.4519 6.02222 13.6889C6.37778 15.0222 7.11111 16.1111 8.22222 16.9556C9.33333 17.8 10.5926 18.2222 12 18.2222C13.7333 18.2222 15.2037 17.6185 16.4111 16.4111C17.6185 15.2037 18.2222 13.7333 18.2222 12C18.2222 10.2667 17.6185 8.7963 16.4111 7.58889C15.2037 6.38148 13.7333 5.77778 12 5.77778C10.9778 5.77778 10.0222 6.01481 9.13333 6.48889C8.24444 6.96296 7.4963 7.61481 6.88889 8.44444H8.44444C8.6963 8.44444 8.90741 8.52963 9.07778 8.7C9.24815 8.87037 9.33333 9.08148 9.33333 9.33333C9.33333 9.58519 9.24815 9.7963 9.07778 9.96667C8.90741 10.137 8.6963 10.2222 8.44444 10.2222H4.88889C4.63704 10.2222 4.42593 10.137 4.25556 9.96667C4.08519 9.7963 4 9.58519 4 9.33333V5.77778C4 5.52593 4.08519 5.31481 4.25556 5.14444C4.42593 4.97407 4.63704 4.88889 4.88889 4.88889C5.14074 4.88889 5.35185 4.97407 5.52222 5.14444C5.69259 5.31481 5.77778 5.52593 5.77778 5.77778V6.97778C6.53333 6.02963 7.45556 5.2963 8.54444 4.77778C9.63333 4.25926 10.7852 4 12 4C13.1111 4 14.1519 4.21111 15.1222 4.63333C16.0926 5.05556 16.937 5.62593 17.6556 6.34444C18.3741 7.06296 18.9444 7.90741 19.3667 8.87778C19.7889 9.84815 20 10.8889 20 12C20 13.1111 19.7889 14.1519 19.3667 15.1222C18.9444 16.0926 18.3741 16.937 17.6556 17.6556C16.937 18.3741 16.0926 18.9444 15.1222 19.3667C14.1519 19.7889 13.1111 20 12 20ZM12.8889 11.6444L15.1111 13.8667C15.2741 14.0296 15.3556 14.237 15.3556 14.4889C15.3556 14.7407 15.2741 14.9481 15.1111 15.1111C14.9481 15.2741 14.7407 15.3556 14.4889 15.3556C14.237 15.3556 14.0296 15.2741 13.8667 15.1111L11.3778 12.6222C11.2889 12.5333 11.2222 12.4333 11.1778 12.3222C11.1333 12.2111 11.1111 12.0963 11.1111 11.9778V8.44444C11.1111 8.19259 11.1963 7.98148 11.3667 7.81111C11.537 7.64074 11.7481 7.55556 12 7.55556C12.2519 7.55556 12.463 7.64074 12.6333 7.81111C12.8037 7.98148 12.8889 8.19259 12.8889 8.44444V11.6444Z" fill="black"/>
</svg>

<svg xmlns="http://www.w3.org/2000/svg" width="24" height="24" fill="none">
  <path fill="#000"
    d="M12 20a7.78 7.78 0 0 1-4.96-1.7 7.72 7.72 0 0 1-2.8-4.34.66.66 0 0 1 .14-.62.87.87 0 0 1 .6-.32.96.96 0 0 1 .64.14.92.92 0 0 1 .4.53 5.93 5.93 0 0 0 2.2 3.27A6.08 6.08 0 0 0 12 18.22a6 6 0 0 0 4.41-1.8A6 6 0 0 0 18.22 12a6 6 0 0 0-1.8-4.41A6 6 0 0 0 12 5.78a6 6 0 0 0-2.87.7A6.6 6.6 0 0 0 6.9 8.45h1.55a.86.86 0 0 1 .64.26.86.86 0 0 1 .25.63.86.86 0 0 1-.25.64.86.86 0 0 1-.63.25H4.88a.86.86 0 0 1-.63-.25.86.86 0 0 1-.26-.64V5.78a.86.86 0 0 1 .26-.64.86.86 0 0 1 .63-.25.86.86 0 0 1 .63.25.86.86 0 0 1 .26.64v1.2a7.76 7.76 0 0 1 2.76-2.2A7.94 7.94 0 0 1 12 4a7.74 7.74 0 0 1 3.12.63c.97.43 1.82 1 2.54 1.71a8.13 8.13 0 0 1 1.7 2.54A7.74 7.74 0 0 1 20 12a7.74 7.74 0 0 1-.63 3.12 8.13 8.13 0 0 1-1.71 2.54 8.13 8.13 0 0 1-2.54 1.7A7.74 7.74 0 0 1 12 20Zm.89-8.36 2.22 2.23c.16.16.25.37.25.62s-.09.46-.25.62a.84.84 0 0 1-.62.25.84.84 0 0 1-.62-.25l-2.5-2.49a.89.89 0 0 1-.26-.64V8.44a.86.86 0 0 1 .26-.63.86.86 0 0 1 .63-.25.86.86 0 0 1 .63.25.86.86 0 0 1 .26.63v3.2Z" />
</svg>
